X:1
T:Title
%%score { ( 1 4 ) | ( 2 3 ) }
L:1/8
Q:1/4=94
M:4/4
K:F
V:1 treble nm="Grand Piano"
V:4 treble 
V:2 bass 
V:3 bass 
V:1
 [DF]2 [^CG][CE] [DF]2 [Fd]2 | [GB]>A BG [DF]4 | [_EA]2 [EG][EA] [DB]2 [Fd]2 | z4 c4 | %4
w: D.~B.~Towner * * * *||||
 [DF]2 [^CG][CE] [DF]2 [Fd]2 | [GB]>A BG [DF]4 | [Fd]2 ^cd [Af]_e[Fd][_E=c] | z4 [DB]4[K:bass] | %8
w: ||||
 c2 =Bc d2 [DF_B]2 | [G_e][Ge][Fd][DB] [Fd]2 [Fc]2 | [Ec]2 de f[Af][Fd][DFB] | %11
w: |||
 [CFA][Fc][EB][B,EG] z2 z _E | [B,DF]2 [B,^CG][G,CE] [F,DF]2 [Fd]2 | [GB]>[^FA] [GB][_EG] [D=F]4 | %14
w: |||
 d2 ^cd [Gf][G_e][Gd][G=c] | BA d>c [DB]4 |] %16
w: ||
V:2
 B,,F,B,G, F,B,,B,B,, | z z/[K:treble] ^F/ G_E[K:bass] B,,D,F,B, | F,CF,C B,F,B,B,, | z4 .A,2 z2 | %4
 B,,F,B,G, F,B,,B,B,, | z z/[K:treble] ^F/ G_E[K:bass] B,,D,F,B, | z2[K:treble] EF B,-[B,G] G,2 | %7
 z C[K:treble] F>_E[K:bass] F,4 | [F,A,F]2 [F,_A,F][F,=A,F] [B,F]2[K:bass] B,,2 | %9
 [B,,B,][B,,B,][B,,B,][B,,B,] [F,B,]2 [F,A,]2 | %10
 [C,G,]2[K:treble] [B,CE][B,CG] [A,CA][K:bass][F,C][F,B,]B,, | C,[C,A,][C,G,]C, F,_E,D,C, | %12
 B,,2 B,,B,, B,,2 [B,,B,]2 | [_E,B,]>[E,B,] [E,B,][E,B,] [B,,B,]4 | %14
 [B,F]2 [B,E][B,F][K:bass] [_E,B,][E,B,][E,B,][E,_E] | [F,DF][F,CF] [F,B,F]>[F,A,_E] [B,,F,]4 |] %16
V:3
 x8 | [_E,B,]4[K:treble][K:bass] z4 | x8 | C,B,C,[G,E] [F,_E]4 | x8 | %5
 [_E,B,]4[K:treble][K:bass] z4 | [B,,B,]4[K:treble] _E,4 | [F,,F,]4[K:treble][K:bass] .B,,2 z2 | %8
 x6[K:bass] x2 | x8 | x2[K:treble] x3[K:bass] x3 | x8 | x8 | x8 | x4[K:bass] x4 | x8 |] %16
V:4
 x8 | x8 | x8 | [Ec][EG][EA]B z CB,A, | x8 | x8 | x8 | [DB]A d>c z[K:bass] D,F,,B,, | x8 | x8 | %10
 x8 | z4 [A,F]4 | x8 | x8 | x8 | x8 |] %16

